X: 114
T: Mind your Business
B: 204 Favourite Country Dances
N: Published by Straight & Skillern, London ca.1775
F: http://imslp.org/wiki/204_Favourite_Country_Dances_(Various) p.57 #114
Z: 2014 John Chambers <jc:trillian.mit.edu>
M: 6/8
L: 1/8
K: F
% - - - - - - - - - - - - - - - - - - - - - - - - -
|:\
FGA GAB | ABc cde | faf cAF | BGG G3 |\
FGA GAB | ABc cde | faf cAc | AFF F3 :|
|:\
fef cAF | dBd cAF | GBd ceA | BGG G3 |\
AFF BGG | cAA def |gab af/e/d/c/ | AFF F3 :|
% - - - - - - - - - - - - - - - - - - - - - - - - -
%%begintext align
%% Set all 4 and change sides the same Back again
%% cross over 1 Cu, Right and Left at top
%%endtext

%%sep 1 1 500
%%sep 1 1 500
